X:1
T:Title
L:1/8
Q:1/4=140
M:6/8
K:F
V:1 treble nm="Grand Piano"
V:1
 A3- A2 B | A2 _A =A2 B | A6 | D6 | B3- B2 c | B2 A B2 c | B6 | E6 | c3- c2 d | c2 B A2 G | E6 | %11
w: ?????~???? * *|||||||||||
 B6 | A3- A2 B | A2 G F2 E | D6 | B6 | B3- B2 c | B2 A G2 F | E6 | c6 | c3- c2 c | c2 d c2 B | %22
w: |||||||||||
 A6- | A6 | A2 G F2 A | G2 F E2 G | F3- F2 E | D6- | D6 |] %29
w: |||||||

